libs/ui/packages/crypto-icons/src/svg/CRED.svg

<svg width="24" height="24" viewBox="0 0 24 24" fill="none">
<path d="M9.102 11.9745L11.7135 14.5942L18.561 7.701L19.5 8.6535L11.7135 16.5L8.16225 12.9277L9.102 11.9745ZM10.6845 11.742L14.898 7.5L15.8378 8.4525L11.625 12.6975L10.6845 11.742ZM8.9775 15.3645L8.0505 16.299L4.5 12.7275L5.43825 11.775L8.9775 15.3645Z" fill="#37E8A3"/>
</svg>

<svg width="24" height="24" viewBox="0 0 24 24" fill="none"><path fill="#37e8a3" d="m9.102 11.975 2.611 2.62L18.562 7.7l.939.952-7.786 7.847-3.552-3.572zm1.582-.233L14.899 7.5l.94.953-4.213 4.245zm-1.707 3.622-.927.935-3.55-3.572.938-.952z"/></svg>
